X:1
T:Sonate KV 14
T:Sonate in C 
T:Wolfgang Amadeus Mozart
T:KV 14
C:Wolfgang Amadeus Mozart
%%score 1 { ( 2 5 ) | ( 3 4 ) }
L:1/8
Q:1/4=144
M:2/2
K:C
V:1 treble nm="Violino        \n(flauto traverso)"
V:2 treble nm="Pianoforte"
V:5 treble 
V:3 bass 
V:4 bass 
V:1
"^Allegro" z2 | z8 | (3EGc (3EGc (3EGc (3EGc | (3FAc (3FAc (3FAc (3FAc | (3EGc (3EGc (3EGc (3EGc | %5
 (cA) !wedge!G!wedge!F E2 TD2 | (3EGc (3EGc (3EGc (3EGc | (3FAc (3FAc (3FAc (3FAc | %8
 (3EGc (3EGc (3EGc (3EGc | (cA) !wedge!G!wedge!F E2 TD2 | C2 [G,Ec]2 [G,Ec]2 z2 | %11
 (3EGc (3EGc (3EGc (3EGc | (3DGB (3DGB (3DGB (3DGB | (3A,C^F (3A,CF (DG) BG | (G4 ^F2) z2 | %15
 z2 Tg3/2^f/4g/4 b2 [G,G]2 | [G,G]8 | z2 Tg3/2^f/4g/4 b2 [G,G]2 | [G,G]8 | %19
 z2 Tg3/2^f/4g/4 .b2 .d'2 | [G,G]4- [G,G]3 c | B2 TA2 G2 (^FA,) | B,2 B,2 B,2 z2 | %23
 z2 Tg3/2^f/4g/4 !wedge!b2 !wedge!d'2 | [G,G]8 | z2 Tg3/2^f/4g/4 !wedge!b2 !wedge!d'2 | [G,G]8 | %27
 z2 Tg3/2^f/4g/4 !wedge!b2 !wedge!d'2 | [G,G]4- [G,G]3 c | B2 TA2 G2 ^FA, | [B,Gd]2 z2 [CGe]2 z2 | %31
 BG TG3/2^F/4G/4 GC TC3/2B,/4C/4 | [B,Gd]2 z2 [CGe]2 z2 | (BG) (g4 T^f2) | g2 [G,DBg]2 [G,DBg]2 :: %35
 z2 | z8 | (3B,DG (3B,DG (3B,DG (3B,DG | (3CEG (3CEG (3CEG (3CEG | (3B,DG (3B,DG (3B,DG (3B,DG | %40
 (GE) !wedge!D!wedge!C B,2 TA,2 | (3B,DG (3B,DG (3B,DG (3B,DG | (3CEG (3CEG (3CEG (3CEG | %43
 (3B,DG (3B,DG (3B,DG (3B,DG | (GE) !wedge!D!wedge!C B,2 TA,2 | %45
 !wedge!B,/(G/^F/G/ A/G/F/G/) G,2 z2 | z4{_B} _b4 | E4- EA/B/ ^c/B/c/d/ | %48
 e>d !wedge!^c!wedge!_B !wedge!A!wedge!G !wedge!F!wedge!E | (E4 D2) z2 | z4 f4 | %51
 F4- F(E/G/) (F/d/)(c/e/) | d z B z F z D z | [G,Ec]2 C4 A>E | (E4 D)!wedge!A !wedge!G!wedge!F | %55
 E2 z2 z4 | (3EGc (3EGc (3EGc (3EGc | (3FAc (3FAc (3FAc (3FAc | (3EGc (3EGc (3EGc (3EGc | %59
 (cA) !wedge!G!wedge!F E2 TD2 | (3EGc (3EGc (3EGc (3EGc | (3FAc (3FAc (3FAc (3FAc | %62
 (3EGc (3EGc (3EGc (3EGc | (cA) !wedge!G!wedge!F E2 TD2 | C z c4 c2- | c2 c4 A2- | A2 d4 z2 | %67
 D/(G/^F/G/ A/G/F/G/) G, z z2 | z2 Tc3/2B/4c/4 e2 C2 | C8 | z2 Tc3/2B/4c/4 e2 C2 | C8 | %72
 z2 Tc3/2B/4c/4 e2 C2 | C4- C3 F | E2 TD2 C2 (B,D) | (DC) (B,C) C2 z2 | %76
 z2 Tc3/2B/4c/4 !wedge!e2 !wedge!g2 | C8 | z2 Tc3/2B/4c/4 !wedge!e2 !wedge!g2 | C8 | %80
 z2 Tc3/2B/4c/4 !wedge!e2 !wedge!g2 | C4- C3 f | e2 Td2 c2 (BD) | [Ecg]2 z2 [Fca]2 z2 | %84
 ec Tc3/2B/4c/4 cF TF3/2E/4F/4 | E C2 C2 C2 C- | C2 (c4 TB2) | c2 [G,Ec]2 [G,Ec]2 :| %88
[M:2/4][Q:1/4=144]"^Allegro"[Q:1/4=120] z !wedge!G !wedge!c!wedge!e | z !wedge!F !wedge!d!wedge!f | %90
 z !wedge!G !wedge!B!wedge!d | z !wedge!E !wedge!G!wedge!c | z c{^f} g2 | z c{^g} a2 | %94
 c/_B/A/G/ A>E | E2 D2 | z !wedge!G !wedge!c!wedge!e | z !wedge!F !wedge!d!wedge!f | %98
 z !wedge!G !wedge!B!wedge!d | z !wedge!E !wedge!G!wedge!c | z2{^f} g2 | z2{^g} a2 | z2{^a} b2 | %103
 z2{b} c'2 | z2{^c'} d'2 | c'g ec | G (c2 B) | c2 z2 | z c{^f} g2 | z c{^g} a2 | z d{^a} b2 | %111
 z e{b} c'2 | z f{^c'} d'2 | c'g ec | G (c2 B) | c2 z2 | z _e/f/ ge | z d/_e/ fd | %118
 ([G_e]2 [_Ec]2) | ([Fd]2 [DB]2) | z _e/f/ ge | z d/_e/ fd | ([G_e]2 [_Ec]2) | ([Fd]2 [DB]2) | %124
 z !wedge!G !wedge!c!wedge!e | z !wedge!F !wedge!d!wedge!f | z !wedge!G !wedge!B!wedge!d | %127
 z !wedge!E !wedge!G!wedge!c | z c{^f} g2 | z c{^g} a2 | c/_B/A/G/ A>E | E2 D2 | %132
 z !wedge!G !wedge!c!wedge!e | z !wedge!F !wedge!d!wedge!f | z !wedge!G !wedge!B!wedge!d | %135
 z !wedge!E !wedge!G!wedge!c | z2{^f} g2 | z2{^g} a2 | z2{^a} b2 | z2{b} c'2 | z2{^c'} d'2 | %141
 c'g ec | G (c2 B) | c2 z2 | z c{^f} g2 | z c{^g} a2 | z d{^a} b2 | z e{b} c'2 | z f{^c'} d'2 | %149
 c'g ec | G (c2 B) | c2 z2 | Tc>d cc | Td2 c2 | Tc>d cc | TB2 A2 | Tc>d cc | Td>e dd | %158
 z (c B)!wedge!A | (A2 ^G2) | Tc>d cc | Td2 c2 | Tc>d cc | TB2 A2 | Tc>d cc | Td>e dd | %166
 !wedge!c(e/c/) z (d/B/) | (B2 c2) | [Aa]4- | [Aa]4 | [Aa]4- | [Aa]4 | [G,G]4- | [G,G]4 | [G,G]4- | %175
 [G,G]4 | Tc>d cc | Td2 c2 | Tc>d cc | TB2 A2 | Tc>d cc | Td>e dd | !wedge!c(e/c/) z (d/B/) | %183
 (B2 c2) | z !wedge!G !wedge!c!wedge!e | z !wedge!F !wedge!d!wedge!f | %186
 z !wedge!G !wedge!B!wedge!d | z !wedge!E !wedge!G!wedge!c | z c{^f} g2 | z c{^g} a2 | %190
 c/_B/A/G/ A>E | E2 D2 | z !wedge!G !wedge!c!wedge!e | z !wedge!F !wedge!d!wedge!f | %194
 z !wedge!G !wedge!B!wedge!d | z !wedge!E !wedge!G!wedge!c | z2{^f} g2 | z2{^g} a2 | z2{^a} b2 | %199
 z2{b} c'2 | z2{^c'} d'2 | c'g ec | G (c2 B) | c2 z2 | z c{^f} g2 | z c{^g} a2 | z d{^a} b2 | %207
 z e{b} c'2 | z f{^c'} d'2 | c'g ec | G (c2 B) | c2 z2 | z _e/f/ ge | z d/_e/ fd | %214
 ([G_e]2 [_Ec]2) | ([Fd]2 [DB]2) | z _e/f/ ge | z d/_e/ fd | ([G_e]2 [_Ec]2) | ([Fd]2 [DB]2) | %220
 z !wedge!G !wedge!c!wedge!e | z !wedge!F !wedge!d!wedge!f | z !wedge!G !wedge!B!wedge!d | %223
 z !wedge!E !wedge!G!wedge!c | z c{^f} g2 | z c{^g} a2 | c/_B/A/G/ A>E | E2 D2 | %228
 z !wedge!G !wedge!c!wedge!e | z !wedge!F !wedge!d!wedge!f | z !wedge!G !wedge!B!wedge!d | %231
 z !wedge!E !wedge!G!wedge!c | z2{^f} g2 | z2{^g} a2 | z2{^a} b2 | z2{b} c'2 | z2{^c'} d'2 | %237
 c'g ec | G (c2 B) | c2 z2 | z c{^f} g2 | z c{^g} a2 | z d{^a} b2 | z e{b} c'2 | z f{^c'} d'2 | %245
 c'g ec | G2 [G,FB]2 | [G,Ec]2 z2 |][M:3/4][Q:1/4=50]"^Menuetto I"[Q:1/4=132] Ec Gc Ec | %249
 DB{c} BA/B/ DB | C2 C2 C2 | C6 | Ec Gc Ec | A,^F CF A,F | DG B2 A2 |{A} B6 :: z6 | %257
{B} c2{B} c2{B} c2 | c'6 | C6 | z6 |{^c} d2{c} d2{c} d2 | d'6 | D6 | Ec Gc Ec | DB{c} BA/B/ DB | %266
 C2 C2 C2 | C6 | C2 C2 C2 | C2 (F2 E2) |{g} fe/d/ c2 B2 |{B} c6 :| %272
[M:3/4][Q:1/4=50]"^Menuetto II en carillon""^pizzicato"!p! [FAf]2 z2 [FAf]2 | (3Ecg (3Ec_b [Fca]2 | %274
 [FAf]2 z2 [FAf]2 | [ca]2 [_Bg]2 [Af]2 | [Fd]2 z2 z2 | [Ecg]2 z2 z2 | [Fca]2 [Gce]2 [G,FB]2 | %279
 [CEce]2 z2 z2 :: dd' dd' dd' | dd' dd' dd' | cc' cc' cc' | cc' cc' cc' | z2 [_Bf][df] [Bf][df] | %285
 z2 [Af][cf] [Af][cf] | z [d_b] [ca]2 [G_Be]2 | [FAf]2 z2 z2 :| %288
V:2
 z/ G/A/B/ | c/G/A/B/ c/d/e/f/ g/c/d/e/ f/g/a/b/ | c'2 (g4 ^g2) | !wedge!a2 (c'4 a2) | %4
 !wedge!^f2 (g4 c'2) | (af) !wedge!e!wedge!d c2 TB2 | c2 (g4 ^g2) | !wedge!a2 (c'4 a2) | %8
 !wedge!^f2 (g4 c'2) | (af) !wedge!e!wedge!d c2 TB2 | [EGc]2 [EGc]>[EGc] [EGc]2 z2 | %11
 (ge) z e (^de) (de) | (g=d) z d (^cd) (cd) |{d} cB/c/ a2{c} BA/B/ g2 | ([GB]4 [^FA]2) z2 | %15
 Tg3/2^f/4g/4 b2 z2 G2 | (^G2 A) z (G2 A) z | Tg3/2^f/4g/4 b2 z2 B2 | (B2 c) z (B2 c) z | %19
 Tg3/2^f/4g/4 b2 z2 G2 | (^G2 A) z z2 (ec) | d2 Tc2 B2 (3cA^F | (AG) (^FG) GA/B/ c/d/e/^f/ | %23
 Tg3/2^f/4g/4 b2 z2 G2 | (^G2 A) z (G2 A) z | Tg3/2^f/4g/4 b2 z2 B2 | (B2 c) z (B2 c) z | %27
 Tg3/2^f/4g/4 b2 z2 G2 | (^G2 A) z z2 ec | d2 Tc2 (Bg) z ^F | %30
 G/A/B/c/ d/e/^f/g/ E/^F/G/A/ B/c/d/e/ | D4 TA4 | G/A/B/c/ d/e/^f/g/ E/^F/G/A/ B/c/d/e/ | D4 Ta4 | %34
 g2 [Bdg]>[Bdg] [Bdg]2 :: z/ D/E/^F/ | G/D/E/^F/ G/A/B/c/ d/G/A/B/ c/d/e/^f/ | g2 (d4 ^d2) | %38
 !wedge!e2 (g4 e2) | !wedge!^c2 (d4 g2) | (ec) !wedge!B!wedge!A G2 T^F2 | G2 (d4 ^d2) | %42
 !wedge!e2 (g4 e2) | !wedge!^c2 (d4 g2) | (ec) !wedge!B!wedge!A G2 T^F2 | G2 z2 z4 | %46
{_B} _b4 (3bag (3fed | (d4 ^c/)B/c/d/ e/d/e/f/ | %48
 g>f !wedge!e!wedge!d !wedge!^c!wedge!_B !wedge!A!wedge!G | (G4 F2) z2 | f4- (3f_af (3_edc | %51
 (c4 (B/)d/c/e/ d/f/e/g/) | f/g/f/e/ d/e/d/c/ B/c/B/A/ G/A/G/F/ | E (g2 ^g) a/=g/f/e/ d/c/B/c/ | %54
 (c4 B2) z/ G/A/B/ | c/G/A/B/ c/d/e/f/ g/c/d/e/ f/g/a/b/ | c'2 (g4 ^g2) | !wedge!a2 (c'4 a2) | %58
 !wedge!^f2 (g4 c'2) | (af) !wedge!e!wedge!d c2 TB2 | c2 (g4 ^g2) | !wedge!a2 (c'4 a2) | %62
 !wedge!^f2 (g4 c'2) | (af) !wedge!e!wedge!d c2 TB2 | (c_B) B4 c/B/A/G/ |{^G} A2{^g} a2 =gf ed | %66
{e} d^c/d/ a2{d} =cB/c/ a2 | (c4 B2) z2 | Tc3/2B/4c/4 e2 z2 C2 | (^C2 D) z (C2 D) z | %70
 Tc3/2B/4c/4 e2 z2 E2 | (E2 F) z (E2 F) z | Tc3/2B/4c/4 e2 z2 C2 | (^C2 D) z z2 (AF) | %74
 G2 TF2 E2 (3FDB, | (DC) (B,C) C/c/d/e/ f/g/a/b/ | Tc'3/2b/4c'/4 e'2 z2 c2 | (^c2 d) z (c2 d) z | %78
 Tc'3/2b/4c'/4 e'2 z2 e2 | (e2 f) z (e2 f) z | Tc'3/2b/4c'/4 e'2 z2 c2 | (^c2 d) z z2 (af) | %82
 g2 Tf2 (ec') z B | c/d/e/f/ g/a/b/c'/ A/B/c/d/ e/f/g/a/ | G4 Td4 | %85
 c/d/e/f/ g/a/b/c'/ A/B/c/d/ e/f/g/a/ | G4 Td'4 | c'2 [egc']>[egc'] [egc']2 :| %88
[M:2/4]{^f} g2 =f/e/d/c/ | Tc2 B2 |{e} f2 e/d/c/B/ | B2 c z |{^f} g2 =f/e/d/c/ |{^g} a2 =g/f/e/d/ | %94
 a/g/f/e/ d/c/B/c/ | Tc2 B2 |{^f} g2 =f/e/d/c/ | Tc2 B2 |{e} f2 e/d/c/B/ | B2 c z | %100
{^f} g2 =f/e/d/c/ |{^g} a2 =g/f/e/d/ |{^a} b2 =a/g/f/e/ |{b} c'2 b/a/g/f/ |{^c'} d'2 =c'/b/a/g/ | %105
 c'g ec | G2 Td2 | c2 z2 | z{^f} g =f/e/d/c/ | z{^g} a =g/f/e/d/ | z{^a} b =a/g/f/e/ | %111
 z{b} c' b/a/g/f/ | z{^c'} d' =c'/b/a/g/ | c'g ec | G2 Td2 | c2 z2 | ([_eg]2 [ce]2) | %117
 ([df]2 [Bd]2) | z [c_e]/[df]/ [eg][ce] | z [Bd]/[c_e]/ [df][Bd] | ([_eg]2 [ce]2) | ([df]2 [Bd]2) | %122
 z [c_e]/[df]/ [eg][ce] | z [Bd]/[c_e]/ [df][Bd] |{^f} g2 =f/e/d/c/ | Tc2 B2 |{e} f2 e/d/c/B/ | %127
 B2 c z |{^f} g2 =f/e/d/c/ |{^g} a2 =g/f/e/d/ | a/g/f/e/ d/c/B/c/ | Tc2 B2 |{^f} g2 =f/e/d/c/ | %133
 Tc2 B2 |{e} f2 e/d/c/B/ | B2 c z |{^f} g2 =f/e/d/c/ |{^g} a2 =g/f/e/d/ |{^a} b2 =a/g/f/e/ | %139
{b} c'2 b/a/g/f/ |{^c'} d'2 =c'/b/a/g/ | c'g ec | G2 Td2 | c2 z2 | z{^f} g =f/e/d/c/ | %145
 z{^g} a =g/f/e/d/ | z{^a} b =a/g/f/e/ | z{b} c' b/a/g/f/ | z{^c'} d' =c'/b/a/g/ | c'g ec | %150
 G2 Td2 | c2 z2 | Te>f ea | Tf2 e2 | Te>f ea | Td2 c2 | Te>f ea | Tf>g fa | z (e d)!wedge!c | %159
 Tc2 B2 | Te>f ea | Tf2 e2 | Te>f ea | Td2 c2 | Te>f ea | Tf>g fa | ea d^g | (^g2 a2) | eA gA | %169
 fA dA | ^cA eA | e2 d2 | dG fG | eG cG | BG dG | d2 c2 | Te>f ea | Tf2 e2 | Te>f ea | Td2 c2 | %180
 Te>f ea | Tf>g fa | ea d^g | (^g2 a2) |{^f} g2 =f/e/d/c/ | Tc2 B2 |{e} f2 e/d/c/B/ | B2 c z | %188
{^f} g2 =f/e/d/c/ |{^g} a2 =g/f/e/d/ | a/g/f/e/ d/c/B/c/ | Tc2 B2 |{^f} g2 =f/e/d/c/ | Tc2 B2 | %194
{e} f2 e/d/c/B/ | B2 c z |{^f} g2 =f/e/d/c/ |{^g} a2 =g/f/e/d/ |{^a} b2 =a/g/f/e/ | %199
{b} c'2 b/a/g/f/ |{^c'} d'2 =c'/b/a/g/ | c'g ec | G2 Td2 | c2 z2 | z{^f} g =f/e/d/c/ | %205
 z{^g} a =g/f/e/d/ | z{^a} b =a/g/f/e/ | z{b} c' b/a/g/f/ | z{^c'} d' =c'/b/a/g/ | c'g ec | %210
 G2 Td2 | c2 z2 | ([_eg]2 [ce]2) | ([df]2 [Bd]2) | z [c_e]/[df]/ [eg][ce] | %215
 z [Bd]/[c_e]/ [df][Bd] | ([_eg]2 [ce]2) | ([df]2 [Bd]2) | z [c_e]/[df]/ [eg][ce] | %219
 z [Bd]/[c_e]/ [df][Bd] |{^f} g2 =f/e/d/c/ | Tc2 B2 |{e} f2 e/d/c/B/ | B2 c z |{^f} g2 =f/e/d/c/ | %225
{^g} a2 =g/f/e/d/ | a/g/f/e/ d/c/B/c/ | Tc2 B2 |{^f} g2 =f/e/d/c/ | Tc2 B2 |{e} f2 e/d/c/B/ | %231
 B2 c z |{^f} g2 =f/e/d/c/ |{^g} a2 =g/f/e/d/ |{^a} b2 =a/g/f/e/ |{b} c'2 b/a/g/f/ | %236
{^c'} d'2 =c'/b/a/g/ | c'g ec | G2 Td2 | c2 z2 | z{^f} g =f/e/d/c/ | z{^g} a =g/f/e/d/ | %242
 z{^a} b =a/g/f/e/ | z{b} c' b/a/g/f/ | z{^c'} d' =c'/b/a/g/ | c'g ec | G2 Td2 | c2 z2 |] %248
[M:3/4]{B} c2{B} c2{B} c2 |{a} g^f ga g2 |{g} =f2 f2 ef | e2 d2 c2 |{B} c2{B} c2{B} c2 | %253
{d'} c'b c'd' c'2 | b2 g2 T^f2 |{^f} g6 ::{B} c2{B} c2{B} c2 |{d'} c'b c'd' c'2 | (c2 _B2) AB | %259
 (A2 G2) !wedge!F2 |{^c} d2{c} d2{c} d2 |{e'} d'^c' d'e' d'2 | (d2 =c2) Bc | (B2 A2) !wedge!G2 | %264
{B} c2{B} c2{B} c2 |{a} g^f ga g2 |{g} =f2 f2 ef | (e2 d2) !wedge!c2 |{^g} a2 a2 =ga | %269
 g2 b2 !wedge!c'2 |{b} ag/f/ e2 d2 |{d} c6 :|[M:3/4] (3fag f/g/a/_b/ c'/d'/e'/f'/ | c'2 T_b2 a2 | %274
 (3fag f/g/a/_b/ c'/d'/e'/f'/ | a2 Tg2 f2 | (3d'f'e' (3d'c'b (3agf | (3c'e'd' (3c'ba (3gfe | %278
{b} ag/f/ e2 d2 | c6 :: c'4 _bc' | (_b2 a2) g2 | _b4 ab | (a2 g2) f2 | (3d'f'e' (3f'd'_b (3d'bf | %285
 (3c'f'e' (3f'c'a (3c'af | (3d'_bg (3c'af (3bge |{e} f2 z2 z2 :| %288
V:3
 z2 | z8 | (3CEG (3CEG (3CEG (3CEG | (3CFA (3CFA (3CFA (3CFA | (3CEG (3CEG (3CEG (3CEG | %5
 (3F,A,D (3F,A,D (3G,CE (3G,DF | (3CEG (3CEG (3CEG (3CEG | (3CFA (3CFA (3CFA (3CFA | %8
 (3CEG (3CEG (3CEG (3CEG |[K:bass] (3F,A,D (3F,A,D (3G,CE (3G,DF | %10
 C2 [C,E,G,]>[C,E,G,] [C,E,G,]2 z2 | (3CEG (3CEG (3CEG (3CEG | (3B,DG (3B,DG (3B,DG (3B,DG | %13
 (3^F,A,D (3F,A,D (3G,B,D (3G,B,D | !wedge!D,/D/^C/D/ E/D/C/D/ (3D,^F,A, (3C,F,A, | %15
 (3B,,D,G, (3B,,D,G, (3B,,D,G, (3B,,D,G, | (3C,E,G, (3C,E,G, (3C,E,G, (3C,E,G, | %17
 (3D,G,B, (3D,G,B, (3D,G,B, (3D,G,B, | (3E,G,C (3E,G,C (3E,G,C (3E,G,C | %19
 (3B,,D,G, (3B,,D,G, (3B,,D,G, (3B,,D,G, | (3C,E,G, (3C,E,G, (3C,E,G, (3C,E,G, | %21
 (3D,G,B, (3D,^F,A, (3D,G,B, (3D,A,C | (3E,G,B, (3E,G,B, E,2 z2 | %23
 (3B,,D,G, (3B,,D,G, (3B,,D,G, (3B,,D,G, | (3C,E,G, (3C,E,G, (3C,E,G, (3C,E,G, | %25
 (3D,G,B, (3D,G,B, (3D,G,B, (3D,G,B, | (3E,G,C (3E,G,C (3E,G,C (3E,G,C | %27
 (3B,,D,G, (3B,,D,G, (3B,,D,G, (3B,,D,G, | (3C,E,G, (3C,E,G, (3C,E,G, (3C,E,G, | %29
 (3D,G,B, (3D,^F,A, (3D,G,B, (3D,A,C | (3B,,D,G, (3B,,D,G, (3C,E,G, (3C,E,G, | %31
 (3D,G,B, (3D,G,B, (3D,G,A, (3D,^F,A, | (3B,,D,G, (3B,,D,G, (3C,E,G, (3C,E,G, | %33
 (3D,G,B, (3D,G,B, (3D,G,A, (3D,^F,A, | G,2 G,,>G,, G,,2 :: z2 | z8 | %37
 (3G,B,D (3G,B,D (3G,B,D (3G,B,D | (3G,CE (3G,CE (3G,CE (3G,CE | (3G,B,D (3G,B,D (3G,B,D (3G,B,D | %40
 (3C,E,A, (3C,E,A, (3D,G,B, (3D,A,C |[K:treble] (3G,B,D (3G,B,D (3G,B,D (3G,B,D | %42
 (3G,CE (3G,CE (3G,CE (3G,CE | (3G,B,D (3G,B,D (3G,B,D (3G,B,D | %44
[K:bass] (3C,E,A, (3C,E,A, (3D,G,B, (3D,A,C | !wedge!G,,/G,/^F,/G,/ A,/G,/F,/G,/ G,,2 z2 | %46
 (3G,_B,D (3G,B,D (3G,B,D (3G,B,D | A,,/A,/^G,/A,/ B,/A,/G,/A,/ A,,2 z2 | %48
 (3A,^CE (3A,CE (3A,CE (3A,CE | !wedge!D,/D/^C/D/ E/D/C/D/ D,2 z2 | (3_A,CF (3A,CF (3A,CF (3A,CF | %51
 !wedge!G,,/G,/^F,/G,/ A,/G,/F,/G,/ G,,2 z2 | (3G,,B,,D, (3G,,B,,D, (3G,,B,,D, (3B,,D,G, | %53
 (3C,E,G, (3E,G,C (3F,A,C (3^F,A,C | %54
 !wedge!G,,/G,/^F,/G,/ A,/G,/F,/G,/ G,,!wedge!=F,!wedge!E,!wedge!D, | z8 | %56
[K:treble] (3CEG (3CEG (3CEG (3CEG | (3CFA (3CFA (3CFA (3CFA | (3CEG (3CEG (3CEG (3CEG | %59
[K:bass] (3F,A,D (3F,A,D (3G,CE (3G,DF |[K:treble] (3CEG (3CEG (3CEG (3CEG | %61
 (3CFA (3CFA (3CFA (3CFA | (3CEG (3CEG (3CEG (3CEG |[K:bass] (3F,A,D (3F,A,D (3G,CE (3G,DF | %64
 (3E,G,C (3E,G,C (3E,G,C (3E,G,C | (3F,A,C (3F,A,C (3F,A,C (3F,A,C | %66
 (3F,A,D (3F,A,D (3^F,A,D (3F,A,D | !wedge!G,,/G,/^F,/G,/ A,/G,/F,/G,/ G,,G,F,,=F, | %68
 (3E,,G,,C, (3E,,G,,C, (3E,,G,,C, (3E,,G,,C, | (3F,,A,,C, (3F,,A,,C, (3F,,A,,C, (3F,,A,,C, | %70
 (3G,,C,E, (3G,,C,E, (3G,,C,E, (3G,,C,E, | (3A,,C,F, (3A,,C,F, (3A,,C,F, (3A,,C,F, | %72
 (3E,,G,,C, (3E,,G,,C, (3E,,G,,C, (3E,,G,,C, | (3F,,A,,C, (3F,,A,,C, (3F,,A,,C, (3F,,A,,C, | %74
 (3G,,C,E, (3G,,B,,D, (3G,,C,E, (3G,,D,F, | (3A,,C,E, (3A,,C,E, A,,2 z2 | %76
 (3E,G,C (3E,G,C (3E,G,C (3E,G,C | (3F,A,C (3F,A,C (3F,A,C (3F,A,C | (3G,CE (3G,CE (3G,CE (3G,CE | %79
 (3A,CF (3A,CF (3A,CF (3A,CF | (3E,G,C (3E,G,C (3E,G,C (3E,G,C | (3F,A,C (3F,A,C (3F,A,C (3F,A,C | %82
 (3G,CE (3G,B,D (3G,CE (3G,DF | (3E,G,C (3E,G,C (3F,A,C (3F,A,C | (3G,CE (3G,CE (3G,CD (3G,B,D | %85
 (3E,G,C (3E,G,C (3F,A,C (3F,A,C | (3G,CE (3G,CE (3G,CD (3G,B,D | C2 [C,C]>[C,C] [C,C]2 :| %88
[M:2/4][I:staff -1] [CEG]4 | [DFG]4 | [DFG]4 | [EG]4 |[I:staff +1] [E,G,C]2 z2 | [F,A,C]2 z2 | %94
 F,2 ^F,2 | G,2 G,,2 |[I:staff -1] [CEG]4 | [DFG]4 | [DFG]4 | [EG]4 | [EGc]2[I:staff +1] z2 | %101
[I:staff -1] [FAc]2[I:staff +1] z2 |[I:staff -1] [GBe]2[I:staff +1] z2 | %103
[I:staff -1] [Ace]2[I:staff +1] z2 |[I:staff -1] [Bdg]2[I:staff +1] z2 | %105
[I:staff -1] [ceg]2[I:staff +1] z2 | G,2 G,,2 | C,G,, C,,2 | [E,G,C]2 z2 | C2 D2- | D2 E2- | %111
 E2 F2- | F2 G2- | G2 z2 | G,2 G,,2 | C,G,, C,,2 | G,/G/G,/G/ G,/G/G,/G/ | G,/G/G,/G/ G,/G/G,/G/ | %118
 G, z z2 | G, z z2 | G,/G/G,/G/ G,/G/G,/G/ | G,/G/G,/G/ G,/G/G,/G/ | G, z z2 | G, z z2 | %124
[I:staff -1] [CEG]4 | [DFG]4 | [DFG]4 | [EG]4 |[I:staff +1] [E,G,C]2 z2 | [F,A,C]2 z2 | F,2 ^F,2 | %131
 G,2 G,,2 |[I:staff -1] [CEG]4 | [DFG]4 | [DFG]4 | [EG]4 | [EGc]2[I:staff +1] z2 | %137
[I:staff -1] [FAc]2[I:staff +1] z2 |[I:staff -1] [GBe]2[I:staff +1] z2 | %139
[I:staff -1] [Ace]2[I:staff +1] z2 |[I:staff -1] [Bdg]2[I:staff +1] z2 | %141
[I:staff -1] [ceg]2[I:staff +1] z2 | G,2 G,,2 | C,G,, C,,2 | [E,G,C]2 z2 | C2 D2- | D2 E2- | %147
 E2 F2- | F2 G2- | G2 z2 | G,2 G,,2 | C,G,, C,,2 | [A,C]2 [A,C]2 | [A,D]2 [A,C]2 | [A,C]2 [A,C]2 | %155
 [E,^G,]2 [A,,A,]2 | [A,C]2 z [A,C] | [A,D]2 z [A,D] | [A,C]2 z [A,,A,] | A,2 ^G,2 | %160
 [A,C]2 [A,C]2 | [A,D]2 [A,C]2 | [A,C]2 [A,C]2 | [E,^G,]2 [A,,A,]2 | [A,C]2 z [A,C] | %165
 [A,D]2 z [A,D] | [A,C]2 [E,B,]2 | [A,,A,]4 | A,2 ^C2 | D2 F,2 | E,2 G,2 | G,2 F,2 | B,,2 G,,2 | %173
 C,2 E,2 | D,2 F,2 | F,2 E,2 | [A,C]2 [A,C]2 | [A,D]2 [A,C]2 | [A,C]2 [A,C]2 | [E,^G,]2 [A,,A,]2 | %180
 [A,C]2 z [A,C] | [A,D]2 z [A,D] | [A,C]2 [E,B,]2 | [A,,A,]4 |[I:staff -1] [CEG]4 | [DFG]4 | %186
 [DFG]4 | [EG]4 |[I:staff +1] [E,G,C]2 z2 | [F,A,C]2 z2 | F,2 ^F,2 | G,2 G,,2 | %192
[I:staff -1] [CEG]4 | [DFG]4 | [DFG]4 | [EG]4 | [EGc]2[I:staff +1] z2 | %197
[I:staff -1] [FAc]2[I:staff +1] z2 |[I:staff -1] [GBe]2[I:staff +1] z2 | %199
[I:staff -1] [Ace]2[I:staff +1] z2 |[I:staff -1] [Bdg]2[I:staff +1] z2 | %201
[I:staff -1] [ceg]2[I:staff +1] z2 | G,2 G,,2 | C,G,, C,,2 | [E,G,C]2 z2 | C2 D2- | D2 E2- | %207
 E2 F2- | F2 G2- | G2 z2 | G,2 G,,2 | C,G,, C,,2 | G,/G/G,/G/ G,/G/G,/G/ | G,/G/G,/G/ G,/G/G,/G/ | %214
 G, z z2 | G, z z2 | G,/G/G,/G/ G,/G/G,/G/ | G,/G/G,/G/ G,/G/G,/G/ | G, z z2 | G, z z2 | %220
[I:staff -1] [CEG]4 | [DFG]4 | [DFG]4 | [EG]4 |[I:staff +1] [E,G,C]2 z2 | [F,A,C]2 z2 | F,2 ^F,2 | %227
 G,2 G,,2 |[I:staff -1] [CEG]4 | [DFG]4 | [DFG]4 | [EG]4 | [EGc]2[I:staff +1] z2 | %233
[I:staff -1] [FAc]2[I:staff +1] z2 |[I:staff -1] [GBe]2[I:staff +1] z2 | %235
[I:staff -1] [Ace]2[I:staff +1] z2 |[I:staff -1] [Bdg]2[I:staff +1] z2 | %237
[I:staff -1] [ceg]2[I:staff +1] z2 | G,2 G,,2 | C,G,, C,,2 | [E,G,C]2 z2 | C2 D2- | D2 E2- | %243
 E2 F2- | F2 G2- | G2 z2 | G,2 G,,2 | C,2 z2 |][M:3/4] CG EG CG | B,G DG B,G | A,C A,C G,C | %251
 G,C F,C E,C | CG EG CG | ^F,D A,D F,D | G,D D,D D,C | z G, D,B,, G,,2 :: CG EG CG | CG EG CG | %258
 E,C G,C F,C | F,C _B,C A,C |[K:treble] DA ^FA DA | DA ^FA DA |[K:bass] ^F,D A,D G,D | G,D CD B,D | %264
 CG EG CG | B,G DG B,G | A,C A,C G,C | G,C F,C E,C | F,C F,C E,C | E,C D,C C,C | F,C G,C G,B, | %271
 C2 G,2 C,2 :|[M:3/4][K:treble]!p! [FAc]2 z2 [FAc]2 | c6 | [FAc]2 z2 [FAc]2 | c6 | [FA]2 z2 z2 | %277
 [EG]2 z2 z2 | [Fc]2 [Gc]2 [GB]2 | [CEG]6 :: D2 ^F2 G2 | z2 c2 _B2 | C2 E2 F2 | z2 _B2 A2 | %284
 [_Bdf]2 z2 z2 | [Acf]2 z2 z2 | _B2 c2 C2 |"_Menuetto I da capo" [FAc]2 z2 z2 :| %288
V:4
 x2 | x8 | x8 | x8 | x8 | x8 | x8 | x8 | x8 |[K:bass] x8 | x8 | x8 | x8 | x8 | x8 | x8 | x8 | x8 | %18
 x8 | x8 | x8 | x8 | x8 | x8 | x8 | x8 | x8 | x8 | x8 | x8 | x8 | x8 | x8 | x8 | x6 :: x2 | x8 | %37
 x8 | x8 | x8 | x8 |[K:treble] x8 | x8 | x8 |[K:bass] x8 | x8 | x8 | x8 | x8 | x8 | x8 | x8 | x8 | %53
 x8 | x8 | x8 |[K:treble] x8 | x8 | x8 |[K:bass] x8 |[K:treble] x8 | x8 | x8 |[K:bass] x8 | x8 | %65
 x8 | x8 | x8 | x8 | x8 | x8 | x8 | x8 | x8 | x8 | x8 | x8 | x8 | x8 | x8 | x8 | x8 | x8 | x8 | %84
 x8 | x8 | x8 | x6 :|[M:2/4] x4 | x4 | x4 | x4 | x4 | x4 | x4 | x4 | x4 | x4 | x4 | x4 | x4 | x4 | %102
 x4 | x4 | x4 | x4 | x4 | x4 | x4 | [F,A,]4 | [G,B,]4 | [A,C]4 | [B,D]4 | [CE]2 x2 | x4 | x4 | x4 | %117
 x4 | x4 | x4 | x4 | x4 | x4 | x4 | x4 | x4 | x4 | x4 | x4 | x4 | x4 | x4 | x4 | x4 | x4 | x4 | %136
 x4 | x4 | x4 | x4 | x4 | x4 | x4 | x4 | x4 | [F,A,]4 | [G,B,]4 | [A,C]4 | [B,D]4 | [CE]2 x2 | x4 | %151
 x4 | x4 | x4 | x4 | x4 | x4 | x4 | x4 | E,4 | x4 | x4 | x4 | x4 | x4 | x4 | x4 | x4 | x4 | x4 | %170
 x4 | x4 | x4 | x4 | x4 | x4 | x4 | x4 | x4 | x4 | x4 | x4 | x4 | x4 | x4 | x4 | x4 | x4 | x4 | %189
 x4 | x4 | x4 | x4 | x4 | x4 | x4 | x4 | x4 | x4 | x4 | x4 | x4 | x4 | x4 | x4 | [F,A,]4 | %206
 [G,B,]4 | [A,C]4 | [B,D]4 | [CE]2 x2 | x4 | x4 | x4 | x4 | x4 | x4 | x4 | x4 | x4 | x4 | x4 | x4 | %222
 x4 | x4 | x4 | x4 | x4 | x4 | x4 | x4 | x4 | x4 | x4 | x4 | x4 | x4 | x4 | x4 | x4 | x4 | x4 | %241
 [F,A,]4 | [G,B,]4 | [A,C]4 | [B,D]4 | [CE]2 x2 | x4 | x4 |][M:3/4] x6 | x6 | x6 | x6 | x6 | x6 | %254
 x6 | x6 :: x6 | x6 | x6 | x6 |[K:treble] x6 | x6 |[K:bass] x6 | x6 | x6 | x6 | x6 | x6 | x6 | x6 | %270
 x6 | x6 :|[M:3/4][K:treble] x6 | G2 E2 F2 | x6 | c2 _B2 A2 | x6 | x6 | x6 | x6 :: D6 | D6 | C6 | %283
 C6 | x6 | x6 | x6 | x6 :| %288
V:5
 x2 | x8 | x8 | x8 | x8 | x8 | x8 | x8 | x8 | x8 | x8 | x8 | x8 | x8 | x8 | x8 | x8 | x8 | x8 | %19
 x8 | x8 | x8 | x8 | x8 | x8 | x8 | x8 | x8 | x8 | x8 | x8 | x8 | x8 | x8 | x6 :: x2 | x8 | x8 | %38
 x8 | x8 | x8 | x8 | x8 | x8 | x8 | x8 | x8 | x8 | x8 | x8 | x8 | x8 | x8 | x8 | x8 | x8 | x8 | %57
 x8 | x8 | x8 | x8 | x8 | x8 | x8 | x8 | x8 | x8 | x8 | x8 | x8 | x8 | x8 | x8 | x8 | x8 | x8 | %76
 x8 | x8 | x8 | x8 | x8 | x8 | x8 | x8 | x8 | x8 | x8 | x6 :|[M:2/4] x4 | x4 | x4 | x4 | x4 | x4 | %94
 x4 | x4 | x4 | x4 | x4 | x4 | x4 | x4 | x4 | x4 | x4 | x4 | x4 | x4 | x4 | x4 | x4 | x4 | x4 | %113
 x4 | x4 | x4 | x4 | x4 | x4 | x4 | x4 | x4 | x4 | x4 | x4 | x4 | x4 | x4 | x4 | x4 | x4 | x4 | %132
 x4 | x4 | x4 | x4 | x4 | x4 | x4 | x4 | x4 | x4 | x4 | x4 | x4 | x4 | x4 | x4 | x4 | x4 | x4 | %151
 x4 | x4 | x4 | x4 | x4 | x4 | x4 | x4 | x4 | x4 | x4 | x4 | x4 | x4 | x4 | x4 | x4 | x4 | x4 | %170
 x4 | A4 | x4 | x4 | x4 | G4 | x4 | x4 | x4 | x4 | x4 | x4 | x4 | x4 | x4 | x4 | x4 | x4 | x4 | %189
 x4 | x4 | x4 | x4 | x4 | x4 | x4 | x4 | x4 | x4 | x4 | x4 | x4 | x4 | x4 | x4 | x4 | x4 | x4 | %208
 x4 | x4 | x4 | x4 | x4 | x4 | x4 | x4 | x4 | x4 | x4 | x4 | x4 | x4 | x4 | x4 | x4 | x4 | x4 | %227
 x4 | x4 | x4 | x4 | x4 | x4 | x4 | x4 | x4 | x4 | x4 | x4 | x4 | x4 | x4 | x4 | x4 | x4 | x4 | %246
 x4 | x4 |][M:3/4] x6 | x6 | x6 | x6 | x6 | x6 | x6 | x6 :: x6 | x6 | x6 | x6 | x6 | x6 | x6 | x6 | %264
 x6 | x6 | x6 | x6 | x6 | x6 | x6 | x6 :|[M:3/4] x6 | x6 | x6 | x6 | x6 | x6 | x6 | x6 :: x6 | x6 | %282
 x6 | x6 | x6 | x6 | x6 | x6 :| %288

